packages/foundations/assets/icons/functional/images/human/clothes_hanger_20.svg

<svg width="20" height="20" viewBox="0 0 20 20" fill="none" xmlns="http://www.w3.org/2000/svg">
<g clip-path="url(#clip0_185_1129)">
<path fill-rule="evenodd" clip-rule="evenodd" d="M9.99552 3.5C11.6547 3.5 12.9997 4.84503 12.9997 6.5042C12.9997 7.70841 12.3545 8.50076 11.1766 9.20098C11.1143 9.23801 11.0312 9.31808 11.0068 9.48571L16.5505 11.8932C17.767 12.4254 18.3217 13.843 17.7895 15.0595C17.4306 15.8799 16.6483 16.4281 15.7648 16.4934L4.41255 16.5C3.08475 16.5 2.00836 15.4236 2.00836 14.0958C2.00836 13.2003 2.50534 12.3845 3.28851 11.9705C7.09686 10.314 9.00103 9.48308 9.00103 9.48308C9.01328 9.14024 9.07596 8.82548 9.25157 8.46251C9.44428 8.06418 9.7445 7.72558 10.1546 7.48181C10.7896 7.10428 10.9997 6.84632 10.9997 6.5042C10.9997 5.9496 10.5501 5.5 9.99552 5.5C9.568 5.5 9.08659 5.81887 8.96494 6.26459C8.82056 6.79766 8.27136 7.11276 7.73829 6.96837C7.20521 6.82399 6.89011 6.2748 7.0345 5.74172C7.38596 4.44414 8.62877 3.5 9.99552 3.5ZM9.60393 11.3914L4.25054 13.7255C4.10342 13.7899 4.00836 13.9352 4.00836 14.0958C4.00836 14.2911 4.12474 14.4631 4.38809 14.5H15.5869C15.7475 14.5 15.8928 14.4049 15.9572 14.2578C16.0355 14.0789 15.9739 13.874 15.8202 13.7657L10.4707 11.4207C10.2842 11.3427 10.1258 11.3038 9.99552 11.3038C9.87884 11.3038 9.74831 11.333 9.60393 11.3914Z" fill="#1A1C1F"/>
</g>
<defs>
<clipPath id="clip0_185_1129">
<rect width="20" height="20" fill="white"/>
</clipPath>
</defs>
</svg>

<svg xmlns="http://www.w3.org/2000/svg" width="20" height="20" fill="none"><g clip-path="url(#a)"><path fill="#1A1C1F" fill-rule="evenodd" d="M9.996 3.5A3.004 3.004 0 0 1 13 6.504c0 1.204-.646 1.997-1.823 2.697-.063.037-.146.117-.17.285l5.544 2.407a2.404 2.404 0 0 1-.786 4.6L4.413 16.5a2.404 2.404 0 0 1-1.124-4.53Q9 9.486 9 9.484c.012-.343.075-.658.25-1.02.193-.399.494-.737.904-.981.635-.378.845-.636.845-.978C11 5.95 10.55 5.5 9.996 5.5c-.428 0-.91.319-1.031.765a1 1 0 0 1-1.93-.523C7.386 4.444 8.629 3.5 9.995 3.5m-.392 7.891L4.25 13.726a.4.4 0 0 0-.243.37c0 .195.117.367.38.404h11.199a.404.404 0 0 0 .233-.734l-5.35-2.345a1.3 1.3 0 0 0-.474-.117q-.176 0-.392.087" clip-rule="evenodd"/></g><defs><clipPath id="a"><path fill="#fff" d="M0 0h20v20H0z"/></clipPath></defs></svg>
